resources/svg/discount-o.svg

<svg xmlns="http://www.w3.org/2000/svg" viewBox="0 0 15 15" fill="none"><path d="M5 5.5H6M9 9.5H10M10 5L5 10M6.80145 0.789347L5.67243 1.91837C5.48717 2.10363 5.23589 2.20772 4.97389 2.20772H3.19561C2.65001 2.20772 2.20772 2.65001 2.20772 3.19561V4.97389C2.20772 5.23589 2.10363 5.48717 1.91837 5.67243L0.789347 6.80145C0.403551 7.18725 0.403551 7.81275 0.789347 8.19855L1.91837 9.32757C2.10363 9.51283 2.20772 9.76411 2.20772 10.0261V11.8044C2.20772 12.35 2.65001 12.7923 3.19561 12.7923H4.97389C5.23589 12.7923 5.48717 12.8964 5.67243 13.0816L6.80145 14.2107C7.18725 14.5964 7.81275 14.5964 8.19855 14.2107L9.32757 13.0816C9.51283 12.8964 9.76411 12.7923 10.0261 12.7923H11.8044C12.35 12.7923 12.7923 12.35 12.7923 11.8044V10.0261C12.7923 9.76411 12.8964 9.51283 13.0816 9.32757L14.2107 8.19855C14.5964 7.81275 14.5964 7.18725 14.2107 6.80145L13.0816 5.67243C12.8964 5.48717 12.7923 5.23589 12.7923 4.97389V3.19561C12.7923 2.65001 12.35 2.20772 11.8044 2.20772H10.0261C9.76411 2.20772 9.51283 2.10363 9.32757 1.91837L8.19855 0.789347C7.81275 0.403551 7.18725 0.403551 6.80145 0.789347Z" stroke="black"/></svg>

<svg xmlns="http://www.w3.org/2000/svg" viewBox="0 0 15 15" fill="none"><path d="M5 5.5h1m3 4h1M10 5l-5 5M6.801.79L5.672 1.917a.988.988 0 01-.698.29H3.196a.988.988 0 00-.988.988v1.778a.988.988 0 01-.29.698L.79 6.802a.988.988 0 000 1.397l1.13 1.129a.987.987 0 01.289.698v1.778c0 .546.442.988.988.988h1.778c.262 0 .513.104.698.29l1.13 1.129a.988.988 0 001.397 0l1.129-1.13a.988.988 0 01.698-.289h1.778a.988.988 0 00.988-.988v-1.778c0-.262.104-.513.29-.698l1.129-1.13a.988.988 0 000-1.397l-1.13-1.129a.988.988 0 01-.289-.698V3.196a.988.988 0 00-.988-.988h-1.778a.988.988 0 01-.698-.29L8.198.79a.988.988 0 00-1.397 0z" stroke="currentColor"/></svg>
